X: 42422
T: West End, The
R: hornpipe
M: 4/4
K: Dmajor
|:A2|"D" FDFA d2 d2|"A" cdef g2 g2|"D" fafd "A" eged|"A" c2 A2 A2 G2|
"D" FDFA d2 d2|"A" cdef g2 g2|"D" fafd "A" egec|"D" d2 d2 d2:|
|:fg|"D" afdf afdf|"A" gece gece|"D" afdf afdf|"A" edcB A2 A2|
"D" FDFA d2 d2|"A" cdef g2 g2|"D" fafd "A"egec|"D" d2 d2 d2:|

